Adwaita++/actions/22/username-copy.svg

<svg height="22" width="22" xmlns="http://www.w3.org/2000/svg">
  <path d="m8 8c1.66 0 3 1.34 3 3 0 1.65-1.34 3-3 3s-3-1.35-3-3c0-1.66 1.34-3 3-3zm0 8c6-.01 6 4 6 4v1h-12v-1s0-4 6-4z" fill="#444" transform="translate(3 -3)"/>
</svg>

<svg xmlns="http://www.w3.org/2000/svg" width="22" height="22" version="1.1">
 <defs>
  <style id="current-color-scheme" type="text/css">
   .ColorScheme-Text { color:#444444; } .ColorScheme-Highlight { color:#4285f4; }
  </style>
 </defs>
 <g transform="translate(3,-3)">
  <path style="fill:currentColor" class="ColorScheme-Text" d="M 8,8 C 9.66,8 11,9.34 11,11 11,12.65 9.66,14 8,14 6.34,14 5,12.65 5,11 5,9.34 6.34,8 8,8 Z M 8,16 C 14,15.99 14,20 14,20 V 21 H 2 V 20 C 2,20 2,16 8,16 Z"/>
 </g>
</svg>
